X:1
T: Doreen Goldring
C:Muriel A Johnstone
R:Strathspey
%Q: 128
K:G
M:4/4
L:1/16
|:f|gG3 G3B d2ef g3f|eE3 A3B c3d e3f|gG3 G3B d2ef g3f|eE3 A3G ((3FED) ((3def) |
gG3 G3B d2ef g3f|eE3 A3B c3d e3f|g3d ca3 Bg3 Ae3|dD3 E3G G4-G3A|
BD3 E3G cE3 F3A|dF3 G3B e3d e3f|gd3 dB3 BG3 G3B|BG3 G3E A6c2|
BD3 E3G cE3 F3A|dF3 G3B e3d ((3efg) |d3g ca3 Bg3 Ae3|dD3 E3G G4-G3:|
